X: 8
T: Newport Frolick
C: Michael Dabney
%R: reel
B: Michael Dabney "Twelve Minuets and Twelve Dances" p.10 #2
S: http://imslp.org/wiki/12_Minuets_and_12_Dances_(Dabney,_Michael)
Z: 2015 John Chambers <jc:trillian.mit.edu>
N: The 3rd strain has initial repeat but no final repeat; not fixed.
M: C|
L: 1/8
K: G
% - - - - - - - - - - - - - - - - - - - - - - - - - - - - -
% Voice 1 produces mostly 4- or 8-bar staffs.
V: 1
d |:\
gdcB c3e | dBAG (3FGA Df |\
gdcB c3e | dcBAG2-G2 ::\
(3(EFG) G2 (3(FGA) A2 | GBdB AFED |
E>FGE ABcA | [1 BAGF G4 :|[2 BAGF G3 :|\
|: d |\
egdg cgBg | {c}B2(AG) {G}F2(ED) |\
egdg cgBg | cAGF G3 |]
% - - - - - - - - - - - - - - - - - - - - - - - - - - - - -
% Voice 2 preserves the staff breaks in the book.
V: 2 clef=bass middle=d
z |:\
g4 g4 | g2G2 d4 |\
B2g2 e3c | d2d2 G4 ::\
z2e2 f2d2 | g2G2 d4 |\
z2e2 f2d2 |
[1 g2d2 G4 :|[2 g2d2 G3 :|\
|: z |\
g4 g4 | g2b2 d'2d2 |\
c2B2 A2G2 | d2d2 G3 |]
% - - - - - - - - - - Dance description - - - - - - - - - -
%%begintext align
%% Cast off 2 Cu: up again
%% cross over 1 Cu: the 2d Cu:
%% the same lead down the
%% middle 2 Cu up again to
%% the top Cast off.
%%endtext

%%sep 1 1 500
%%sep 1 1 500
